!!!SOCIAL_FUNCTION:	songs connected with legends
!!!PDT:	1929
!!!OTL: No_2_Song_of_Elder_Brother_After_the_Flood.krn
!!!REG: Southwest
!!!LANG: Non-Tone
!!!LING_GROUP: Uto-Aztecan
**kern
*staff1
*clefF4
*k[f#]
*M2/4
4G\
=1
4d\
4d\
=2||
*M3/4
2d\
4d\
=3
4d\
12c\L
12A\
12A\J
8A\
8r
=4
4d\
12c\L
12A\
12A\J
4A\
=5
2c;\
4A\
=6
4G\
12E\L
[12D\
12D\J]
8D\
8r
=7
2G\
8A\L
8G\J
=8||
*M2/4
4G\
12E\L
12D\
12D\J
=9
8D\
8r
4G\
=10
2G\
=11
[2G\
=12||
*M3/4
2G\]
4A\
=13||
*M2/4
4c\
(8c\L
8A\J)
=14
(4c\
4A\)
=15
4G\
4E\
=16
4D\
4r
=17||
*M3/4
2G;\
8A\L
8G\J
=18
4G\
8E\L
8D\J
8D\
8r
=19
2G\
4E\
=20
2.G\
=21
2.G\
==
*-
